css/images/noun-bangkok-1039729.svg

<svg xmlns="http://www.w3.org/2000/svg" xmlns:xlink="http://www.w3.org/1999/xlink" version="1.1" x="0px" y="0px" viewBox="0 0 150 187.5" enable-background="new 0 0 150 150" xml:space="preserve"><g><g><path d="M121.9550781,135.8952637H28.0361328l19.6025391-26.5649414h54.7128906L121.9550781,135.8952637z M31.9970703,133.8952637    h85.9970703l-16.6523438-22.5649414H48.6484375L31.9970703,133.8952637z"/></g><g><rect x="51.8867188" y="117.4460449" width="2" height="11.0117188"/></g><g><rect x="63.0683594" y="117.4460449" width="2" height="11.0117188"/></g><g><rect x="74.2490234" y="117.4460449" width="2" height="11.0117188"/></g><g><rect x="85.4306641" y="117.4460449" width="2" height="11.0117188"/></g><g><rect x="85.4306641" y="117.4460449" width="2" height="11.0117188"/></g><g><rect x="63.0683594" y="94.0671387" width="2" height="11.0117188"/></g><g><rect x="74.2490234" y="94.0671387" width="2" height="11.0117188"/></g><g><rect x="85.4306641" y="94.0671387" width="2" height="11.0117188"/></g><g><rect x="96.6113281" y="117.4460449" width="2" height="11.0117188"/></g><g><path d="M102.9316406,111.3303223H47.5673828v-6.9101563l8.9355469-17.9604492h38.0195313l8.4091797,18.0595703V111.3303223z     M49.5673828,109.3303223h51.3642578v-4.3686523l-7.6845703-16.5019531H57.7412109l-8.1738281,16.4301758V109.3303223z"/></g><g><polygon points="87.5996094,88.4597168 63.5761719,88.4597168 63.5761719,49.6809082 65.5761719,49.6809082     65.5761719,86.4597168 85.5996094,86.4597168 85.5996094,49.6809082 87.5996094,49.6809082   "/></g><g><path d="M80.5908203,67.0881348h-2V29.2883301c0-1.6557617-1.3466797-3.0024414-3.0029297-3.0024414    c-1.6552734,0-3.0019531,1.3466797-3.0019531,3.0024414v37.7998047h-2V29.2883301    c0-2.7583008,2.2441406-5.0024414,5.0019531-5.0024414c2.7587891,0,5.0029297,2.2441406,5.0029297,5.0024414V67.0881348z"/></g><g><path d="M85.65625,77.0930176c-0.0537109-5.4233398-4.5517578-9.5131836-10.4628906-9.5131836    c-5.4824219,0-9.6171875,4.0854492-9.6171875,9.503418h-2c0-6.5581055,4.9941406-11.503418,11.6171875-11.503418    c6.9248047,0,12.3994141,5.0488281,12.4628906,11.4936523L85.65625,77.0930176z"/></g><g><rect x="64.5761719" y="76.083252" width="22.0800781" height="2"/></g><g><g><path d="M30.5664063,135.8952637H10v-6.6147461c0-0.8588867,0.1083984-1.7167969,0.3212891-2.550293l5.5654297-21.7495117     h12.5126953l5.5664063,21.7490234c0.2353516,0.921875,0.3212891,2.3496094,0.3212891,3.0839844h-2     c0-0.7578125-0.0986328-1.9628906-0.2587891-2.5883789l-5.1816406-20.2446289h-9.4072266l-5.1806641,20.2451172     C12.0869141,127.8972168,12,128.588623,12,129.2805176v4.6147461h18.5664063V135.8952637z"/></g><g><path d="M28.5976563,106.9807129H15.6630859V96.2526855c0-1.3867188,0.1044922-2.7875977,0.3105469-4.1640625     l0.1484375-0.9521484h12.0175781l0.1308594,0.8476563c0.2167969,1.4077148,0.3271484,2.84375,0.3271484,4.2675781V106.9807129z      M17.6630859,104.9807129h8.9345703V96.251709c0-1.0375977-0.0625-2.0820313-0.1875-3.1152344h-8.5595703     c-0.1240234,1.0327148-0.1875,2.0791016-0.1875,3.1162109V104.9807129z"/></g><g><path d="M27.5742188,92.4509277h-2V77.3747559c0-1.8920898-1.5390625-3.4311523-3.4306641-3.4311523     c-1.8925781,0-3.4316406,1.5390625-3.4316406,3.4311523v15.0761719h-2V77.3747559     c0-2.9946289,2.4365234-5.4311523,5.4316406-5.4311523c2.9941406,0,5.4306641,2.4365234,5.4306641,5.4311523V92.4509277z"/></g><g><rect x="21.1435547" y="65.182373" width="2" height="7.7612305"/></g></g><g><g><path d="M140,135.8952637h-20.5664063v-2H138v-4.6147461c0-0.6918945-0.0869141-1.3833008-0.2587891-2.0551758     l-5.1806641-20.2446289h-9.4072266l-5.1816406,20.2451172c-0.1601563,0.625-0.2587891,1.8300781-0.2587891,2.5878906h-2     c0-0.734375,0.0859375-2.1621094,0.3212891-3.0834961l5.5664063-21.7495117h12.5126953l5.5654297,21.7490234     C139.8916016,127.5637207,140,128.4216309,140,129.2805176V135.8952637z"/></g><g><path d="M134.3369141,106.9807129h-12.9345703V96.251709c0-1.4238281,0.1103516-2.8598633,0.3271484-4.2675781     l0.1308594-0.8476563h12.0175781l0.1474457,0.9458008c0.2070465,1.3828125,0.3115387,2.7836914,0.3115387,4.1704102V106.9807129z      M123.4023438,104.9807129h8.9345703v-8.7280273c0-1.0361328-0.0625-2.0810547-0.1875-3.1162109h-8.5595703     c-0.125,1.0332031-0.1875,2.0776367-0.1875,3.1152344V104.9807129z"/></g><g><path d="M133.2880859,92.4509277h-2V77.3747559c0-1.8920898-1.5390625-3.4311523-3.4316406-3.4311523     s-3.4316406,1.5390625-3.4316406,3.4311523v15.0761719h-2V77.3747559c0-2.9946289,2.4365234-5.4311523,5.4316406-5.4311523     s5.4316406,2.4365234,5.4316406,5.4311523V92.4509277z"/></g><g><rect x="126.8564453" y="65.182373" width="2" height="7.7612305"/></g></g><g><rect x="74.5878906" y="14.1047363" width="2" height="11.1811523"/></g></g><text x="0" y="165" fill="#000000" font-size="5px" font-weight="bold" font-family="'Helvetica Neue', Helvetica, Arial-Unicode, Arial, Sans-serif">Created by DinosoftLabs</text><text x="0" y="170" fill="#000000" font-size="5px" font-weight="bold" font-family="'Helvetica Neue', Helvetica, Arial-Unicode, Arial, Sans-serif">from the Noun Project</text></svg>

<svg width="150" height="188" viewBox="0 0 150 188" fill="none" xmlns="http://www.w3.org/2000/svg">
<path d="M121.955 135.895H28.0361L47.6387 109.33H102.352L121.955 135.895ZM31.9971 133.895H117.994L101.342 111.33H48.6484L31.9971 133.895Z" fill="black"/>
<path d="M53.8867 117.446H51.8867V128.458H53.8867V117.446Z" fill="black"/>
<path d="M65.0684 117.446H63.0684V128.458H65.0684V117.446Z" fill="black"/>
<path d="M76.249 117.446H74.249V128.458H76.249V117.446Z" fill="black"/>
<path d="M87.4307 117.446H85.4307V128.458H87.4307V117.446Z" fill="black"/>
<path d="M87.4307 117.446H85.4307V128.458H87.4307V117.446Z" fill="black"/>
<path d="M65.0684 94.0671H63.0684V105.079H65.0684V94.0671Z" fill="black"/>
<path d="M76.249 94.0671H74.249V105.079H76.249V94.0671Z" fill="black"/>
<path d="M87.4307 94.0671H85.4307V105.079H87.4307V94.0671Z" fill="black"/>
<path d="M98.6113 117.446H96.6113V128.458H98.6113V117.446Z" fill="black"/>
<path d="M102.932 111.33H47.5674V104.42L56.5029 86.4597H94.5225L102.932 104.519V111.33ZM49.5674 109.33H100.932V104.962L93.2471 88.4597H57.7412L49.5674 104.89V109.33Z" fill="black"/>
<path d="M87.5996 88.4597H63.5762V49.6809H65.5762V86.4597H85.5996V49.6809H87.5996V88.4597Z" fill="black"/>
<path d="M80.5908 67.0881H78.5908V29.2883C78.5908 27.6326 77.2441 26.2859 75.5879 26.2859C73.9326 26.2859 72.5859 27.6326 72.5859 29.2883V67.0881H70.5859V29.2883C70.5859 26.53 72.8301 24.2859 75.5879 24.2859C78.3467 24.2859 80.5908 26.53 80.5908 29.2883V67.0881Z" fill="black"/>
<path d="M85.6562 77.093C85.6025 71.6697 81.1045 67.5798 75.1934 67.5798C69.7109 67.5798 65.5762 71.6653 65.5762 77.0833H63.5762C63.5762 70.5251 68.5703 65.5798 75.1934 65.5798C82.1182 65.5798 87.5928 70.6287 87.6562 77.0735L85.6562 77.093Z" fill="black"/>
<path d="M86.6562 76.0833H64.5762V78.0833H86.6562V76.0833Z" fill="black"/>
<path d="M30.5664 135.895H10V129.281C10 128.422 10.1084 127.564 10.3213 126.73L15.8867 104.981H28.3994L33.9658 126.73C34.2012 127.652 34.2871 129.079 34.2871 129.814H32.2871C32.2871 129.056 32.1885 127.851 32.0283 127.225L26.8467 106.981H17.4395L12.2588 127.226C12.0869 127.897 12 128.589 12 129.281V133.895H30.5664V135.895Z" fill="black"/>
<path d="M28.5977 106.981H15.6631V96.2527C15.6631 94.866 15.7676 93.4651 15.9736 92.0886L16.1221 91.1365H28.1396L28.2705 91.9841C28.4873 93.3918 28.5977 94.8279 28.5977 96.2517V106.981ZM17.6631 104.981H26.5977V96.2517C26.5977 95.2141 26.5352 94.1697 26.4102 93.1365H17.8506C17.7266 94.1692 17.6631 95.2156 17.6631 96.2527V104.981Z" fill="black"/>
<path d="M27.5742 92.4509H25.5742V77.3748C25.5742 75.4827 24.0352 73.9436 22.1436 73.9436C20.251 73.9436 18.7119 75.4827 18.7119 77.3748V92.4509H16.7119V77.3748C16.7119 74.3801 19.1484 71.9436 22.1436 71.9436C25.1377 71.9436 27.5742 74.3801 27.5742 77.3748V92.4509Z" fill="black"/>
<path d="M23.1436 65.1824H21.1436V72.9436H23.1436V65.1824Z" fill="black"/>
<path d="M140 135.895H119.434V133.895H138V129.281C138 128.589 137.913 127.897 137.741 127.225L132.561 106.981H123.153L117.972 127.226C117.812 127.851 117.713 129.056 117.713 129.814H115.713C115.713 129.079 115.799 127.652 116.034 126.73L121.601 104.981H134.113L139.679 126.73C139.892 127.564 140 128.422 140 129.281V135.895Z" fill="black"/>
<path d="M134.337 106.981H121.402V96.2517C121.402 94.8279 121.513 93.3918 121.729 91.9841L121.86 91.1365H133.878L134.025 92.0823C134.232 93.4651 134.337 94.866 134.337 96.2527V106.981ZM123.402 104.981H132.337V96.2527C132.337 95.2166 132.274 94.1716 132.149 93.1365H123.59C123.465 94.1697 123.402 95.2141 123.402 96.2517V104.981Z" fill="black"/>
<path d="M133.288 92.4509H131.288V77.3748C131.288 75.4827 129.749 73.9436 127.856 73.9436C125.964 73.9436 124.425 75.4827 124.425 77.3748V92.4509H122.425V77.3748C122.425 74.3801 124.861 71.9436 127.856 71.9436C130.852 71.9436 133.288 74.3801 133.288 77.3748V92.4509Z" fill="black"/>
<path d="M128.856 65.1824H126.856V72.9436H128.856V65.1824Z" fill="black"/>
<path d="M76.5879 14.1047H74.5879V25.2859H76.5879V14.1047Z" fill="black"/>
</svg>
